X:29
T:Frost is All Over
M:6/8
L:1/8
K:D Major
A|def edB|AFD E2D|FAA AFA|Bee edB|!
def edB|AFD E2D|FAA AFA|Bdd d2:|!
g|f3 afd|g3 bag|f3 afd|gfg e2g|!
f3 afd|g3 bag|fga efg|fdd d2:|!
